X:1
T:The Golden Vanity
M:2/4
L:1/16
K:C
 E| G3 G E3 G| e4 e3 d| c3 c c3 E| F4 D3 E| F4 D3 D| d3 d d3 d| e3 d c3 A|\
 G6 z G| G3 G E3 G| e3 e e3 d| c3 c c3 E| F4 E3 F| G3 G G3 G| G8| C8|\
 c8| d8| e8| c4 c3 B| A3 A f3 e| d4 A3- B| c6 z||

